X:1
T:Camp Meeting on the Fourth of July
M:C
L:1/8
R:March
S:James Bryan – Festival of Fiddle Tunes, 1995
Z:From a transcription by Dave Barton
B:the Portland Collection v.2 p.33
F:http://www.youtube.com/watch?v=K_HEDd38Etw
F:http://www.youtube.com/watch?v=k8NLdIohBtc
F:http://www.youtube.com/watch?v=PeVGbtz9Ixc
Z: Contributed 2016-04-13 13:28:05 by Jim Garber jimg@paperclipdesign.com
K:D
DE |\
"D"F2FG FEDF | A2AB AFDE \
|1,3 "D"F2F2 ABAF | "A"E2EF E2 \
:|2,4 "D"F2FA "A"FDE2 | "D"D4{e}D2 :|
|: (3ABc |\
"D"d2de dcBA | "G"B2Bc "D"BAFA \
|1,3 "D"d2de dcBA | "G"BABc B2 \
:|2,4 "A"A2AB AFE2 | "D"D4{e}D2 :|
